svg/fluentui-system-icons/ic_fluent_folder_arrow_right_16_filled.svg

<svg width="16" height="16" viewBox="0 0 16 16" fill="none" xmlns="http://www.w3.org/2000/svg">
<path d="M7.18062 3H7.17592L6.0679 2.11016C5.97913 2.03886 5.86868 2 5.75482 2H4C2.89543 2 2 2.89543 2 4V4.49882L5.5591 4.49993L7.18062 3ZM2 5.49882V10C2 11.1046 2.89543 12 4 12H5.20703C5.07217 11.5232 5 11.02 5 10.5C5 7.46243 7.46243 5 10.5 5C11.8286 5 13.0472 5.4711 13.9978 6.25537V5C13.9978 3.89543 13.1024 3 11.9978 3H8.65327L6.09435 5.36704C6.0019 5.45255 5.8806 5.50003 5.75467 5.49999L2 5.49882ZM13.9978 7.66866C13.1728 6.65069 11.9124 6 10.5 6C8.01472 6 6 8.01472 6 10.5L6.00001 10.5082C6.00094 11.0312 6.09109 11.5333 6.25606 12C6.87381 13.7478 8.54067 15 10.5 15C12.9853 15 15 12.9853 15 10.5C15 9.42711 14.6245 8.44192 13.9978 7.66866ZM10.8536 12.8536C10.6583 13.0488 10.3417 13.0488 10.1464 12.8536C9.95118 12.6583 9.95118 12.3417 10.1464 12.1464L11.2929 11H8.5C8.22386 11 8 10.7761 8 10.5C8 10.2239 8.22386 10 8.5 10H11.2929L10.1464 8.85355C9.95118 8.65829 9.95118 8.34171 10.1464 8.14645C10.3417 7.95118 10.6583 7.95118 10.8536 8.14645L12.8536 10.1464C12.9015 10.1944 12.9377 10.2496 12.9621 10.3086C12.9861 10.3667 12.9996 10.4303 13 10.497L13 10.5L13 10.503C12.9996 10.5697 12.9861 10.6333 12.9621 10.6914C12.938 10.7495 12.9026 10.804 12.8557 10.8514L12.8532 10.854L10.8536 12.8536Z" fill="#212121"/>
</svg>

<svg xmlns="http://www.w3.org/2000/svg" width="16" height="16"><path d="M7.18 3h-.004l-1.108-.89A.5.5 0 0 0 5.755 2H4a2 2 0 0 0-2 2v.499h3.56L7.18 3ZM2 5.499V10a2 2 0 0 0 2 2h1.207a5.5 5.5 0 0 1 8.79-5.745V5a2 2 0 0 0-2-2H8.654l-2.56 2.367a.5.5 0 0 1-.34.133L2 5.499Zm11.998 2.17A4.5 4.5 0 0 0 6 10.5v.008a4.502 4.502 0 0 0 9-.008 4.481 4.481 0 0 0-1.002-2.831Zm-3.144 5.185a.5.5 0 0 1-.708-.708L11.293 11H8.5a.5.5 0 0 1 0-1h2.793l-1.147-1.146a.5.5 0 0 1 .708-.708l2 2a.5.5 0 0 1 .146.351v.006a.5.5 0 0 1-.144.348l-.003.003-2 2Z"/></svg>
